X: 34174
T: Reel Of Bogie, The
R: reel
M: 4/4
K: Edorian
BE E2 BAFA|BFAF DEFA|BE E2 BAFA|dcdf e2 dc|
BE E2 BAFA|BFAF DEFA|dcde fdef|1 dBAF EFGA:|2 dBAF EGFE||
D2 FA d3 A|BdAd BAFE|D2 FA dcdA|BdAF EGFE|
D2 FA dcdf|edef g2 fg|afge fdec|1 dBAF E2 FE:|2 dBAF EFGA||

